X:1
T:Early Morning Rain
M:4/4
L:1/4
K:C
 z2 G G| G G F E| G4-| G4| z2 D D| F F E D| C4-| C4| z2 G, G,| A, A, C C|\
 D4-| D4| z2 D E| D C C C| G,4-| G,4| z2 G, G,| A,2 C C| D4-| D4| z2 D D|\
 F F G G| E4-| E4| z2 G G| G G F E| G4-| G4| z2 z D| F2 E D| C4-| C4|\
